library/css/icons/svgs/fi-page-doc.svg

<svg xmlns="http://www.w3.org/2000/svg" width="100" height="100" viewBox="0 0 100 100"><path d="M80.277 12.5h-.005v-4.02c0-.956-.774-1.73-1.73-1.73h-32.87l-25.95 25.95v58.819c0 .956.774 1.73 1.73 1.73h57.09c.956 0 1.73-.774 1.73-1.73v-2.448h.005v-76.571zm-50.598 70.794v-47.134h17.723c.956 0 1.73-.774 1.73-1.73v-17.723h21.188v66.587h-40.641zM38.663 61.862h-4.124v9.231h4.138c2.893 0 5.052-1.675 5.052-4.623s-2.16-4.608-5.066-4.608zm0 6.796h-1.329v-4.36h1.342c1.495 0 2.214.927 2.214 2.173.001 1.162-.829 2.187-2.227 2.187zM49.958 61.71c-2.851 0-5.052 1.938-5.052 4.775 0 2.837 2.201 4.774 5.052 4.774 2.851 0 5.051-1.938 5.051-4.774.001-2.838-2.2-4.775-5.051-4.775zm0 7.086c-1.343 0-2.214-1.024-2.214-2.311s.872-2.312 2.214-2.312 2.214 1.024 2.214 2.312-.871 2.311-2.214 2.311zM61.268 64.173c.831 0 1.55.623 1.786 1.342l2.408-1.121c-.554-1.273-1.771-2.685-4.194-2.685-2.892 0-5.079 1.924-5.079 4.775 0 2.837 2.187 4.774 5.079 4.774 2.422 0 3.654-1.467 4.194-2.699l-2.408-1.107c-.235.719-.955 1.342-1.786 1.342-1.342 0-2.242-1.024-2.242-2.311s.899-2.31 2.242-2.31z"/></svg>

<?xml version="1.0" encoding="utf-8"?>
<!-- Generator: Adobe Illustrator 17.0.0, SVG Export Plug-In . SVG Version: 6.00 Build 0)  -->
<!DOCTYPE svg PUBLIC "-//W3C//DTD SVG 1.1//EN" "http://www.w3.org/Graphics/SVG/1.1/DTD/svg11.dtd">
<svg version="1.1" id="Layer_1" xmlns="http://www.w3.org/2000/svg" xmlns:xlink="http://www.w3.org/1999/xlink" x="0px" y="0px"
	 width="100px" height="100px" viewBox="0 0 100 100" enable-background="new 0 0 100 100" xml:space="preserve">
<g>
	<path d="M80.277,12.5h-0.005V8.48c0-0.956-0.774-1.73-1.73-1.73h-2.45v0H47.402v0h-1.73L19.722,32.7v2.447v1.013v52.912v2.447
		c0,0.956,0.774,1.73,1.73,1.73h1.582H76.96h1.582c0.956,0,1.73-0.774,1.73-1.73v-2.448h0.005L80.277,12.5z M29.679,83.294V36.16
		h17.723c0.956,0,1.73-0.774,1.73-1.73V16.707h21.188l0,66.587H29.679z"/>
	<path d="M38.663,61.862h-4.124v9.231h4.138c2.893,0,5.052-1.675,5.052-4.623S41.569,61.862,38.663,61.862z M38.663,68.658h-1.329
		v-4.36h1.342c1.495,0,2.214,0.927,2.214,2.173C40.891,67.633,40.061,68.658,38.663,68.658z"/>
	<path d="M49.958,61.71c-2.851,0-5.052,1.938-5.052,4.775c0,2.837,2.201,4.774,5.052,4.774c2.851,0,5.051-1.938,5.051-4.774
		C55.01,63.647,52.809,61.71,49.958,61.71z M49.958,68.796c-1.343,0-2.214-1.024-2.214-2.311s0.872-2.312,2.214-2.312
		c1.342,0,2.214,1.024,2.214,2.312S51.301,68.796,49.958,68.796z"/>
	<path d="M61.268,64.173c0.831,0,1.55,0.623,1.786,1.342l2.408-1.121c-0.554-1.273-1.771-2.685-4.194-2.685
		c-2.892,0-5.079,1.924-5.079,4.775c0,2.837,2.187,4.774,5.079,4.774c2.422,0,3.654-1.467,4.194-2.699l-2.408-1.107
		c-0.235,0.719-0.955,1.342-1.786,1.342c-1.342,0-2.242-1.024-2.242-2.311S59.925,64.173,61.268,64.173z"/>
</g>
</svg>
